src/WeatherTwentyOne/Resources/Images/fluent_weather_rain_20_filled.svg

<svg width="40" height="40" viewBox="0 0 40 40" fill="none" xmlns="http://www.w3.org/2000/svg">
<path d="M20.0298 8.03601C24.9598 8.03601 27.7558 11.182 28.1618 14.984H28.2858C31.4578 14.984 34.0298 17.458 34.0298 20.51C34.0298 23.56 31.4578 26.036 28.2858 26.036L26.8538 26.034L26.8338 26.084L23.8678 31.492C23.7486 31.7117 23.5514 31.8788 23.3152 31.9603C23.0789 32.0419 22.8207 32.032 22.5913 31.9326C22.362 31.8333 22.1782 31.6516 22.0761 31.4235C21.974 31.1953 21.961 30.9372 22.0398 30.7L22.1118 30.534L24.5818 26.034H20.8758L20.8558 26.084L17.8898 31.492C17.7706 31.7117 17.5734 31.8788 17.3372 31.9603C17.1009 32.0419 16.8427 32.032 16.6133 31.9326C16.384 31.8333 16.2002 31.6516 16.0981 31.4235C15.996 31.1953 15.983 30.9372 16.0618 30.7L16.1338 30.534L18.6038 26.034H14.8638L11.8898 31.492C11.7776 31.6975 11.5968 31.8571 11.3789 31.943C11.1611 32.0289 10.9201 32.0356 10.6978 31.962L10.5338 31.89C10.3284 31.7782 10.1686 31.5979 10.0824 31.3804C9.99617 31.163 9.98887 30.9223 10.0618 30.7L10.1338 30.534L12.5838 26.034H11.7738C8.60179 26.034 6.02979 23.562 6.02979 20.51C6.02979 17.57 8.41378 15.168 11.4238 14.994L11.8978 14.984C12.3078 11.158 15.1018 8.03601 20.0298 8.03601V8.03601Z" fill="url(#paint0_linear)"/>
<defs>
<linearGradient id="paint0_linear" x1="10.8112" y1="12.3713" x2="24.6308" y2="27.4984" gradientUnits="userSpaceOnUse">
<stop offset="0.10243" stop-color="#28C2D1"/>
<stop offset="0.925347" stop-color="#4931DE"/>
</linearGradient>
</defs>
</svg>

<svg width="40" height="40" fill="none" xmlns="http://www.w3.org/2000/svg">
    <path
        d="M20.03 8.036c4.93 0 7.726 3.146 8.132 6.948h.124c3.172 0 5.744 2.474 5.744 5.526 0 3.05-2.572 5.526-5.744 5.526l-1.432-.002-.02.05-2.966 5.408a1 1 0 01-1.828-.792l.072-.166 2.47-4.5h-3.706l-.02.05-2.966 5.408a1 1 0 01-1.828-.792l.072-.166 2.47-4.5h-3.74l-2.974 5.458a1 1 0 01-1.192.47l-.164-.072a1 1 0 01-.472-1.19l.072-.166 2.45-4.5h-.81c-3.172 0-5.744-2.472-5.744-5.524 0-2.94 2.384-5.342 5.394-5.516l.474-.01c.41-3.826 3.204-6.948 8.132-6.948z"
        fill="url(#prefix__paint0_linear)" />
    <defs>
        <linearGradient id="prefix__paint0_linear" x1="10.811" y1="12.371" x2="24.631" y2="27.498"
            gradientUnits="userSpaceOnUse">
            <stop offset=".102" stop-color="#28C2D1" />
            <stop offset=".925" stop-color="#4931DE" />
        </linearGradient>
    </defs>
</svg>
